!!!COM: Haydn, Franz Joseph
!!!OTL: String Quartet in E-flat major
!!!OPS: Opus 09
!!!ONM: No. 2
!!!OMD: Menuetto
!!!OMV: 2
!!!SCT: H /disk/dos2/musedata_2000/haydn/traut/quart/op09n2/stage1/02
!!!SCA: Thematisch-bibliographisches Werkevererzeichnis (A. van Hoboken)
!!!YOR: Trautwein Edition
!!!EED: Frances Bennion
!!!ENC: Frances Bennion
!!!CDT: 1732/3/31/-1809/5/31/
!!!CNT: Oesterreich
!!!YEC: Copyright (c) 1994, 2000 Center for Computer Assisted Research in the Humanities
!!!YEM: Rights to all derivative editions reserved.
!!!YEM: Refer to licensing agreement for further details.
!!!YEN: United States of America
**kern	**kern	**kern	**kern
*k[b-e-a-]	*k[b-e-a-]	*k[b-e-a-]	*k[b-e-a-]
*E-:	*E-:	*E-:	*E-:
*clefF4	*clefC3	*clefG	*clefG
*M3/4	*M3/4	*M3/4	*M3/4
4e-	4e-	2.g	2b-
4e-	4e-	.	.
4e-	4e-	.	8cc
.	.	.	8b-
=2	=2	=2	=2
4d	4d	2.f	4b-
4d	4d	.	4b-
4d	4d	.	4b-
=3	=3	=3	=3
4c	4c	2g	4ee-
4c	4e-	.	4ee-
4c	4f	4a	4ee-
=4	=4	=4	=4
[2.B-	2.f	2a	2ee-
.	.	4b-	4dd
=5	=5	=5	=5
4B-]	4e	4g	2cc
[2A-	2f	2a-	.
.	.	.	4ff
=6	=6	=6	=6
4A-]	4d	4f	2b-
[2G	2e-	2g	.
.	.	.	4ee-
=7	=7	=7	=7
4G]	2c	4e-	4a-
4F	.	4d	4a-
4E-	4c-	4e-	4a-
=8	=8	=8	=8
2D	2.B-	2f	4a-
.	.	.	8A-
.	.	.	16G
.	.	.	16A-
4E-	.	4e-	8G
.	.	.	8e-
=9	=9	=9	=9
2AA-	2c	2c	8B
.	.	.	8c
.	.	.	4.a-
4BB-	4F	4A-	.
.	.	.	16f
.	.	.	16d
=10	=10	=10	=10
4E-	4G	4G	4e-
4BB-	2r	2r	2r
4EE-	.	.	.
=11	=11	=11	=11
4e-	[2.g	2.b-	2gg
4e-	.	.	.
4e-	.	.	8aa-
.	.	.	8gg
=12	=12	=12	=12
4d	2.g]	2.b	4ff
4d	.	.	4ff
4d	.	.	4ff
=13	=13	=13	=13
4c	4g	4cc	2ee-
4c	4e-	4g	.
4c	4e-	4g	8ff
.	.	.	8ee-
=14	=14	=14	=14
[2.B-	2.e-	2.g	4dd-
.	.	.	4dd-
.	.	.	4dd-
=15	=15	=15	=15
4B-]	4e	4g	2cc
[2A-	2f	2a-	.
.	.	.	4ff
=16	=16	=16	=16
4A-]	4d	4f	2b-
[2G	2e-	2g	.
.	.	.	4ee-
=17	=17	=17	=17
4G]	2c	4e-	4a-
4F	.	4d	4a-
4E-	4c-	4e-	4a-
=18	=18	=18	=18
2D	2.B-	2f	4a-
.	.	.	8A-
.	.	.	16G
.	.	.	16A-
4E-	.	4e-	8G
.	.	.	8e-
=19	=19	=19	=19
2AA-	2c	2c	8B
.	.	.	8c
.	.	.	4.a-
4BB-	4F	4A-	.
.	.	.	16f
.	.	.	16d
=20	=20	=20	=20
4E-	4G	4G	4e-
4BB-	2r	2r	2r
4EE-	.	.	.
=21	=21	=21	=21
2.r	2.r	2.r	2b-
.	.	.	12ee-
.	.	.	12dd
.	.	.	12cc
=22	=22	=22	=22
2.r	2.r	2.r	12b-
.	.	.	12a-
.	.	.	12g
.	.	.	12f
.	.	.	12e-
.	.	.	12d
.	.	.	12c
.	.	.	12B-
.	.	.	12A-
=23	=23	=23	=23
4r	4r	4r	4G
4G	4G	4B-	4e-
4G	4G	4B-	4e
=24	=24	=24	=24
4A-	4A-	4c	4f
2r	2r	2r	2r
=25	=25	=25	=25
2.r	2.r	2.r	2cc
.	.	.	12aa-
.	.	.	12gg
.	.	.	12ff
=26	=26	=26	=26
2r	2r	2r	12ccc
.	.	.	12bb-
.	.	.	12aa-
.	.	.	12gg
.	.	.	12ff
.	.	.	12ee-
4A-	12f	4b-	12dd
.	12e-	.	12ee-
.	12d	.	12ff
=27	=27	=27	=27
4G	4e-	4b-	4ee-
4B-	4B-	4e-	4g
4BB-	4B-	4d	4f
=28	=28	=28	=28
4E-	4e-	2e-	2e-
4BB-	4B-	.	.
4EE-	4E-	4r	4r
=29	=29	=29	=29
[2.BB-	2.r	2.r	2b-
.	.	.	12g
.	.	.	12a-
.	.	.	12b-
=30	=30	=30	=30
2.BB-_	2B-	2r	12a-
.	.	.	12g
.	.	.	12f
.	.	.	12e-
.	.	.	12d
.	.	.	12c
.	12A-	12dd	12B-
.	12G	12ee-	12c
.	12F	12ff	12d
=31	=31	=31	=31
2.BB-_	12G	4ee-	12e-
.	12F	.	12f
.	12E-	.	12g
.	12D	4b-	12f
.	12E-	.	12g
.	12F	.	12a-
.	12E-	4b-	12g
.	12F	.	12a-
.	12G	.	12b-
=32	=32	=32	=32
2.BB-_	12F	2b-	12a-
.	12G	.	12g
.	12A-	.	12f
.	4B-	.	12e-
.	.	.	12d
.	.	.	12c
.	12A-	12dd	12B-
.	12G	12ee-	12c
.	12F	12ff	12d
=33	=33	=33	=33
2.BB-]	12G	4ee-	12e-
.	12F	.	12f
.	12E-	.	12g
.	12D	4b-	12f
.	12E-	.	12g
.	12F	.	12a-
.	12E-	12b-	12g
.	12F	12a-	12a-
.	12G	12g	12b-
=34	=34	=34	=34
4AA-	4A-	4cc	4cc
2r	2r	2r	4r
.	.	.	4ccc
=35	=35	=35	=35
2.r	4g	4b-	4ee
.	4a-	4cc	4ff
.	4r	4r	4bb-
=36	=36	=36	=36
2.r	4f	4a-	4dd
.	4g	4b-	4ee-
.	4r	4r	4gg
=37	=37	=37	=37
2.r	4c	4e-	4a
.	4d	4f	4b-
.	4r	4r	4r
=38	=38	=38	=38
2AA-	2A-	2A-	2A-
12C	12c	12c	12c
12BB-	12B-	12B-	12B-
12AA-	12A-	12A-	12A-
=39	=39	=39	=39
4GG	4G	4G	12G
.	.	.	12A-
.	.	.	12B-
2r	2r	2r	12c
.	.	.	12d
.	.	.	12e-
.	.	.	12f
.	.	.	12g
.	.	.	12a-
=40	=40	=40	=40
2r	2r	2r	12b-
.	.	.	12cc
.	.	.	12dd
.	.	.	12ee-
.	.	.	12ff
.	.	.	12gg
4A-	12d	4b-	12ff
.	12e-	.	12ee-
.	12f	.	12dd
=41	=41	=41	=41
4G	4e-	4b-	4ee-
4B-	4B-	4e-	4g
4BB-	4B-	4d	4f
=42	=42	=42	=42
4E-	4e-	2e-	2e-
4BB-	4B-	.	.
4EE-	4E-	4r	4r
==	==	==	==
*-	*-	*-	*-
!!!RWG1: This file contains only pitch and duration data.
!!!RWG2: Transposing instruments are not transposed.
!!!RWG3: Spines may have incompatible meters.
!!!RWG4: Durations of rests and tied notes may be interpreted.
!!!RWG: Key is interpreted using the Humdrum key tool.
!!!AFT: stage1
!!!END: 1997/04/15
!!!KEY: 877737503
!!!EMD: Converted from MuseData to Humdrum Dec 16, 2000, by Andreas Kornstaedt using muse2kern.
!!!EMD: Manual editing by Craig Sapp, Nov 2001
